Newaita-dark/apps/48/nmap.svg

<svg height="48pt" viewBox="0 0 48 48" width="48pt" xmlns="http://www.w3.org/2000/svg" xmlns:xlink="http://www.w3.org/1999/xlink"><linearGradient id="a"><stop offset="0" stop-opacity=".313725"/><stop offset=".222222" stop-opacity=".27451"/><stop offset="1" stop-opacity="0"/></linearGradient><radialGradient id="b" cx="450.908936" cy="189.579361" gradientTransform="matrix(.00000026 -.117199 -.210958 -.00000015 65.296304 95.392994)" gradientUnits="userSpaceOnUse" r="21.166656" xlink:href="#a"/><radialGradient id="c" cx="450.908936" cy="189.579361" gradientTransform="matrix(-.00000026 .117199 .210958 .00000015 -17.666755 -11.291223)" gradientUnits="userSpaceOnUse" r="21.166656" xlink:href="#a"/><radialGradient id="d" cx="450.908936" cy="189.579361" gradientTransform="matrix(-.00000026 -.117199 .210958 -.00000015 -17.666755 95.392994)" gradientUnits="userSpaceOnUse" r="21.166656" xlink:href="#a"/><radialGradient id="e" cx="450.908936" cy="189.579361" gradientTransform="matrix(.00000026 .117199 -.210958 .00000015 65.296302 -11.291224)" gradientUnits="userSpaceOnUse" r="21.166656" xlink:href="#a"/><linearGradient id="f" gradientTransform="matrix(.0200401 0 0 .093759 18.698079 20.158175)" gradientUnits="userSpaceOnUse" x1="255.323059" x2="255.323044" y1="233.5" y2="254.666656"><stop offset="0" stop-opacity=".27451"/><stop offset="1" stop-opacity="0"/></linearGradient><linearGradient id="g" gradientUnits="userSpaceOnUse" x1="23.814786" x2="23.814786" y1="4.34415649995" y2="42.0509015"><stop offset="0" stop-color="#e0e0e0"/><stop offset="1" stop-color="#bdbdbd"/></linearGradient><linearGradient id="h" gradientUnits="userSpaceOnUse" x1="23.814737" x2="23.814737" y1="6.32874712274" y2="40.06629786656"><stop offset="0" stop-color="#616161"/><stop offset="1" stop-color="#424242"/></linearGradient><linearGradient id="i"><stop offset="0" stop-color="#66bb6a"/><stop offset="1" stop-color="#66bb6a" stop-opacity="0"/></linearGradient><radialGradient id="j" cx="36.21832181287" cy="28.65508249995" gradientUnits="userSpaceOnUse" r="1.98456543749" xlink:href="#i"/><radialGradient id="k" cx="29.02420258642" cy="18.98033610421" gradientUnits="userSpaceOnUse" r="1.73649211197" xlink:href="#i"/><radialGradient id="l" cx="31.7530605" cy="13.77083850014" gradientUnits="userSpaceOnUse" r="1.98456543749" xlink:href="#i"/><linearGradient id="m" gradientUnits="userSpaceOnUse" x1="29.76842625074" x2="32.74526933534" xlink:href="#i" y1="37.08945718228" y2="24.18980388652"/><linearGradient id="n" gradientTransform="matrix(-.0468795 -.0811976 .0811976 -.0468795 0 20.158175)" gradientUnits="userSpaceOnUse" x1="-250.225266" x2="-250.272751" y1="199.236206" y2="209.901794"><stop offset="0" stop-color="#a5d6a7"/><stop offset="1" stop-color="#a5d6a7" stop-opacity="0"/></linearGradient><path d="m25.800781 42.050781h3.96875v-1.984375h-3.96875zm0 0" fill="url(#b)"/><path d="m21.832031 42.050781h-3.972656v1.984375h3.972656zm0 0" fill="url(#c)"/><path d="m21.832031 42.050781h-3.972656v-1.984375h3.972656zm0 0" fill="url(#d)"/><path d="m25.800781 42.050781h3.96875v1.984375h-3.96875zm0 0" fill="url(#e)"/><path d="m21.832031 41.554688h3.96875v2.480468h-3.96875zm0 0" fill="url(#f)"/><path d="m23.816406 4.34375c10.410156 0 18.851563 8.441406 18.851563 18.855469 0 10.410156-8.441407 18.851562-18.851563 18.851562-10.414062 0-18.855468-8.441406-18.855468-18.851562 0-10.414063 8.441406-18.855469 18.855468-18.855469zm0 0" fill="url(#g)"/><path d="m23.816406 6.328125c9.316406 0 16.867188 7.554687 16.867188 16.871094 0 9.316406-7.550782 16.867187-16.867188 16.867187s-16.871094-7.550781-16.871094-16.867187c0-9.316407 7.554688-16.871094 16.871094-16.871094zm0 0" fill="url(#h)"/><path d="m23.816406 42.050781c-10.445312 0-18.855468-8.410156-18.855468-18.851562 0-.0625 0-.125 0-.1875.101562 10.359375 8.472656 18.667969 18.855468 18.667969 10.382813 0 18.753906-8.308594 18.851563-18.667969v.1875c0 10.441406-8.410157 18.851562-18.851563 18.851562zm0 0" fill-opacity=".196078"/><path d="m23.816406 4.34375c-10.445312 0-18.855468 8.410156-18.855468 18.855469v.183593c.101562-10.359374 8.472656-18.667968 18.855468-18.667968 10.382813 0 18.753906 8.308594 18.851563 18.667968 0-.0625 0-.125 0-.183593 0-10.445313-8.410157-18.855469-18.851563-18.855469zm0 0" fill="#fff" fill-opacity=".392157"/><path d="m23.816406 4.203125c-10.523437 0-18.996094 8.472656-18.996094 18.996094 0 10.519531 8.472657 18.992187 18.996094 18.992187 10.519532 0 18.992188-8.472656 18.992188-18.992187 0-10.523438-8.472656-18.996094-18.992188-18.996094zm0 .28125c10.367188 0 18.710938 8.34375 18.710938 18.714844 0 10.367187-8.34375 18.710937-18.710938 18.710937-10.371094 0-18.714844-8.34375-18.714844-18.710937 0-10.371094 8.34375-18.714844 18.714844-18.714844zm0 0" fill="#212121"/><path d="m36.21875 26.671875c1.09375 0 1.984375.886719 1.984375 1.984375 0 1.09375-.890625 1.984375-1.984375 1.984375-1.097656 0-1.984375-.890625-1.984375-1.984375 0-1.097656.886719-1.984375 1.984375-1.984375zm0 0" fill="url(#j)"/><path d="m29.023438 17.242188c.960937 0 1.738281.777343 1.738281 1.738281 0 .957031-.777344 1.738281-1.738281 1.738281-.957032 0-1.734376-.78125-1.734376-1.738281 0-.960938.777344-1.738281 1.734376-1.738281zm0 0" fill="url(#k)"/><path d="m31.753906 11.785156c1.09375 0 1.984375.890625 1.984375 1.984375 0 1.097657-.890625 1.984375-1.984375 1.984375-1.097656 0-1.984375-.886718-1.984375-1.984375 0-1.09375.886719-1.984375 1.984375-1.984375zm0 0" fill="url(#l)"/><g fill="#a5d6a7"><path d="m23.566406 6.328125v6.453125c-5.574218.128906-10.039062 4.59375-10.167968 10.167969h-6.453126v.496093h6.453126c.128906 5.574219 4.59375 10.039063 10.167968 10.167969v6.453125h.496094v-6.453125c5.574219-.128906 10.039062-4.59375 10.167969-10.167969h6.453125v-.496093h-6.453125c-.128907-5.574219-4.59375-10.039063-10.167969-10.167969v-6.453125zm0 6.949219v9.671875h-9.671875c.128907-5.300781 4.371094-9.542969 9.671875-9.671875zm.496094 0c5.300781.128906 9.542969 4.371094 9.671875 9.671875h-9.671875zm-10.167969 10.167968h9.671875v9.671876c-5.300781-.128907-9.542968-4.371094-9.671875-9.671876zm10.167969 0h9.671875c-.128906 5.300782-4.371094 9.542969-9.671875 9.671876zm0 0"/><path d="m8.929688 22.207031v1.984375h.496093v-1.984375zm2.976562 0v1.984375h.496094v-1.984375zm2.976562 0v1.984375h.496094v-1.984375zm2.976563 0v1.984375h.496094v-1.984375zm2.980469 0v1.984375h.496094v-1.984375zm0 0"/><path d="m26.296875 22.207031v1.984375h.496094v-1.984375zm2.976563 0v1.984375h.496093v-1.984375zm2.976562 0v1.984375h.496094v-1.984375zm2.976562 0v1.984375h.496094v-1.984375zm2.976563 0v1.984375h.496094v-1.984375zm0 0"/><path d="m22.824219 20.71875h1.984375v-.5h-1.984375zm0-2.980469h1.984375v-.496093h-1.984375zm0-2.976562h1.984375v-.496094h-1.984375zm0-2.976563h1.984375v-.496094h-1.984375zm0-2.976562h1.984375v-.496094h-1.984375zm0 0"/><path d="m22.824219 38.082031h1.984375v-.496093h-1.984375zm0-2.976562h1.984375v-.496094h-1.984375zm0-2.976563h1.984375v-.496094h-1.984375zm0-2.976562h1.984375v-.496094h-1.984375zm0-2.976563h1.984375v-.496093h-1.984375zm0 0"/></g><path d="m23.765625 23.199219v.128906l.050781-.128906zm.050781 0 8.375 14.65625c5.082032-2.898438 8.492188-8.367188 8.492188-14.65625zm0 0" fill="url(#m)"/><path d="m31.941406 37.660156-8.125-14.070312c-.066406-.117188-.027344-.269532.089844-.339844.121094-.066406.273438-.027344.339844.09375l8.125 14.070312c.070312.117188.027344.269532-.089844.339844-.121094.066406-.269531.027344-.339844-.09375zm0 0" fill="url(#n)"/><path d="m254.017409-147.506445c99.365511 0 179.899487 80.575638 179.899487 179.941149 0 99.365512-80.533976 179.899488-179.899487 179.899488s-179.94115-80.533976-179.94115-179.899488c0-99.365511 80.575639-179.941149 179.94115-179.941149zm0 0" fill="none" stroke="#212121" stroke-linecap="round" stroke-linejoin="round" stroke-width="3" transform="matrix(.093759 0 0 .093759 0 20.158175)"/><path d="m23.816406 8.3125c-8.246094 0-14.886718 6.640625-14.886718 14.886719 0 1.792969.316406 3.511719.894531 5.101562 5.054687-4.417969 11.679687-7.085937 18.953125-7.085937 3.488281 0 6.828125.613281 9.917968 1.742187-.125-8.132812-6.714843-14.644531-14.878906-14.644531zm16.867188 14.886719v.175781c0-.058594 0-.117188 0-.175781zm-.003906.261719v.035156c0-.011719 0-.023438 0-.035156zm-33.710938.613281c.003906.070312.007812.140625.011719.210937-.003907-.070312-.007813-.140625-.011719-.210937zm.042969.640625c.007812.070312.015625.140625.019531.210937-.003906-.070312-.011719-.140625-.019531-.210937zm.140625 1.140625c.007812.042969.011718.085937.019531.128906-.007813-.042969-.011719-.085937-.019531-.128906zm0 0" fill="#fff" fill-opacity=".156863"/></svg>

<?xml version="1.0" encoding="UTF-8"?>
<svg xmlns="http://www.w3.org/2000/svg" xmlns:xlink="http://www.w3.org/1999/xlink" width="48pt" height="48pt" viewBox="0 0 48 48" version="1.1">
<defs>
<radialGradient id="radial0" gradientUnits="userSpaceOnUse" cx="450.908936" cy="189.579361" fx="450.908936" fy="189.579361" r="21.166656" gradientTransform="matrix(0.000000261256,-0.117199,-0.210958,-0.000000152308,65.296304,95.392994)">
<stop offset="0" style="stop-color:rgb(0%,0%,0%);stop-opacity:0.313725;"/>
<stop offset="0.222222" style="stop-color:rgb(0%,0%,0%);stop-opacity:0.27451;"/>
<stop offset="1" style="stop-color:rgb(0%,0%,0%);stop-opacity:0;"/>
</radialGradient>
<radialGradient id="radial1" gradientUnits="userSpaceOnUse" cx="450.908936" cy="189.579361" fx="450.908936" fy="189.579361" r="21.166656" gradientTransform="matrix(-0.000000261256,0.117199,0.210958,0.000000152308,-17.666755,-11.291223)">
<stop offset="0" style="stop-color:rgb(0%,0%,0%);stop-opacity:0.313725;"/>
<stop offset="0.222222" style="stop-color:rgb(0%,0%,0%);stop-opacity:0.27451;"/>
<stop offset="1" style="stop-color:rgb(0%,0%,0%);stop-opacity:0;"/>
</radialGradient>
<radialGradient id="radial2" gradientUnits="userSpaceOnUse" cx="450.908936" cy="189.579361" fx="450.908936" fy="189.579361" r="21.166656" gradientTransform="matrix(-0.000000261256,-0.117199,0.210958,-0.000000152308,-17.666755,95.392994)">
<stop offset="0" style="stop-color:rgb(0%,0%,0%);stop-opacity:0.313725;"/>
<stop offset="0.222222" style="stop-color:rgb(0%,0%,0%);stop-opacity:0.27451;"/>
<stop offset="1" style="stop-color:rgb(0%,0%,0%);stop-opacity:0;"/>
</radialGradient>
<radialGradient id="radial3" gradientUnits="userSpaceOnUse" cx="450.908936" cy="189.579361" fx="450.908936" fy="189.579361" r="21.166656" gradientTransform="matrix(0.000000261256,0.117199,-0.210958,0.000000152308,65.296302,-11.291224)">
<stop offset="0" style="stop-color:rgb(0%,0%,0%);stop-opacity:0.313725;"/>
<stop offset="0.222222" style="stop-color:rgb(0%,0%,0%);stop-opacity:0.27451;"/>
<stop offset="1" style="stop-color:rgb(0%,0%,0%);stop-opacity:0;"/>
</radialGradient>
<linearGradient id="linear0" gradientUnits="userSpaceOnUse" x1="255.323059" y1="233.5" x2="255.323044" y2="254.666656" gradientTransform="matrix(0.0200401,0,0,0.093759,18.698079,20.158175)">
<stop offset="0" style="stop-color:rgb(0%,0%,0%);stop-opacity:0.27451;"/>
<stop offset="1" style="stop-color:rgb(0%,0%,0%);stop-opacity:0;"/>
</linearGradient>
<linearGradient id="linear1" gradientUnits="userSpaceOnUse" x1="254" y1="-168.666672" x2="254" y2="233.5" gradientTransform="matrix(0.093759,0,0,0.093759,0,20.158175)">
<stop offset="0" style="stop-color:rgb(87.843137%,87.843137%,87.843137%);stop-opacity:1;"/>
<stop offset="1" style="stop-color:rgb(74.117647%,74.117647%,74.117647%);stop-opacity:1;"/>
</linearGradient>
<linearGradient id="linear2" gradientUnits="userSpaceOnUse" x1="254" y1="-126.333351" x2="254" y2="191.166656" gradientTransform="matrix(0.10626,0,0,0.10626,-3.175303,19.752929)">
<stop offset="0" style="stop-color:rgb(38.039216%,38.039216%,38.039216%);stop-opacity:1;"/>
<stop offset="1" style="stop-color:rgb(25.882353%,25.882353%,25.882353%);stop-opacity:1;"/>
</linearGradient>
<radialGradient id="radial4" gradientUnits="userSpaceOnUse" cx="338.666687" cy="64.166664" fx="338.666687" fy="64.166664" r="10.583333" gradientTransform="matrix(0.187518,0,0,0.187518,-27.287778,16.622678)">
<stop offset="0" style="stop-color:rgb(40%,73.333333%,41.568627%);stop-opacity:1;"/>
<stop offset="1" style="stop-color:rgb(40%,73.333333%,41.568627%);stop-opacity:0;"/>
</radialGradient>
<radialGradient id="radial5" gradientUnits="userSpaceOnUse" cx="349.250031" cy="-41.666664" fx="349.250031" fy="-41.666664" r="10.583333" gradientTransform="matrix(0.164078,0,0,0.164078,-28.280044,25.816919)">
<stop offset="0" style="stop-color:rgb(40%,73.333333%,41.568627%);stop-opacity:1;"/>
<stop offset="1" style="stop-color:rgb(40%,73.333333%,41.568627%);stop-opacity:0;"/>
</radialGradient>
<radialGradient id="radial6" gradientUnits="userSpaceOnUse" cx="285.75" cy="-83.999992" fx="285.75" fy="-83.999992" r="10.583333" gradientTransform="matrix(0.187518,0,0,0.187518,-21.830208,29.522349)">
<stop offset="0" style="stop-color:rgb(40%,73.333333%,41.568627%);stop-opacity:1;"/>
<stop offset="1" style="stop-color:rgb(40%,73.333333%,41.568627%);stop-opacity:0;"/>
</radialGradient>
<linearGradient id="linear3" gradientUnits="userSpaceOnUse" x1="310.029449" y1="163.151978" x2="338.044159" y2="41.754902" gradientTransform="matrix(0.10626,0,0,0.10626,-3.175303,19.752928)">
<stop offset="0" style="stop-color:rgb(40%,73.333333%,41.568627%);stop-opacity:1;"/>
<stop offset="1" style="stop-color:rgb(40%,73.333333%,41.568627%);stop-opacity:0;"/>
</linearGradient>
<linearGradient id="linear4" gradientUnits="userSpaceOnUse" x1="-250.225266" y1="199.236206" x2="-250.272751" y2="209.901794" gradientTransform="matrix(-0.0468795,-0.0811976,0.0811976,-0.0468795,-0.000000000000000999,20.158175)">
<stop offset="0" style="stop-color:rgb(64.705882%,83.921569%,65.490196%);stop-opacity:1;"/>
<stop offset="1" style="stop-color:rgb(64.705882%,83.921569%,65.490196%);stop-opacity:0;"/>
</linearGradient>
</defs>
<g id="surface1">
<path style=" stroke:none;fill-rule:nonzero;fill:url(#radial0);" d="M 25.800781 42.050781 L 29.769531 42.050781 L 29.769531 40.066406 L 25.800781 40.066406 Z M 25.800781 42.050781 "/>
<path style=" stroke:none;fill-rule:nonzero;fill:url(#radial1);" d="M 21.832031 42.050781 L 17.859375 42.050781 L 17.859375 44.035156 L 21.832031 44.035156 Z M 21.832031 42.050781 "/>
<path style=" stroke:none;fill-rule:nonzero;fill:url(#radial2);" d="M 21.832031 42.050781 L 17.859375 42.050781 L 17.859375 40.066406 L 21.832031 40.066406 Z M 21.832031 42.050781 "/>
<path style=" stroke:none;fill-rule:nonzero;fill:url(#radial3);" d="M 25.800781 42.050781 L 29.769531 42.050781 L 29.769531 44.035156 L 25.800781 44.035156 Z M 25.800781 42.050781 "/>
<path style=" stroke:none;fill-rule:nonzero;fill:url(#linear0);" d="M 21.832031 41.554688 L 25.800781 41.554688 L 25.800781 44.035156 L 21.832031 44.035156 Z M 21.832031 41.554688 "/>
<path style=" stroke:none;fill-rule:nonzero;fill:url(#linear1);" d="M 23.816406 4.34375 C 34.226562 4.34375 42.667969 12.785156 42.667969 23.199219 C 42.667969 33.609375 34.226562 42.050781 23.816406 42.050781 C 13.402344 42.050781 4.960938 33.609375 4.960938 23.199219 C 4.960938 12.785156 13.402344 4.34375 23.816406 4.34375 Z M 23.816406 4.34375 "/>
<path style=" stroke:none;fill-rule:nonzero;fill:url(#linear2);" d="M 23.816406 6.328125 C 33.132812 6.328125 40.683594 13.882812 40.683594 23.199219 C 40.683594 32.515625 33.132812 40.066406 23.816406 40.066406 C 14.5 40.066406 6.945312 32.515625 6.945312 23.199219 C 6.945312 13.882812 14.5 6.328125 23.816406 6.328125 Z M 23.816406 6.328125 "/>
<path style=" stroke:none;fill-rule:nonzero;fill:rgb(0%,0%,0%);fill-opacity:0.196078;" d="M 23.816406 42.050781 C 13.371094 42.050781 4.960938 33.640625 4.960938 23.199219 C 4.960938 23.136719 4.960938 23.074219 4.960938 23.011719 C 5.0625 33.371094 13.433594 41.679688 23.816406 41.679688 C 34.199219 41.679688 42.570312 33.371094 42.667969 23.011719 C 42.667969 23.074219 42.667969 23.136719 42.667969 23.199219 C 42.667969 33.640625 34.257812 42.050781 23.816406 42.050781 Z M 23.816406 42.050781 "/>
<path style=" stroke:none;fill-rule:nonzero;fill:rgb(100%,100%,100%);fill-opacity:0.392157;" d="M 23.816406 4.34375 C 13.371094 4.34375 4.960938 12.753906 4.960938 23.199219 C 4.960938 23.257812 4.960938 23.320312 4.960938 23.382812 C 5.0625 13.023438 13.433594 4.714844 23.816406 4.714844 C 34.199219 4.714844 42.570312 13.023438 42.667969 23.382812 C 42.667969 23.320312 42.667969 23.257812 42.667969 23.199219 C 42.667969 12.753906 34.257812 4.34375 23.816406 4.34375 Z M 23.816406 4.34375 "/>
<path style=" stroke:none;fill-rule:nonzero;fill:rgb(12.941177%,12.941177%,12.941177%);fill-opacity:1;" d="M 23.816406 4.203125 C 13.292969 4.203125 4.820312 12.675781 4.820312 23.199219 C 4.820312 33.71875 13.292969 42.191406 23.816406 42.191406 C 34.335938 42.191406 42.808594 33.71875 42.808594 23.199219 C 42.808594 12.675781 34.335938 4.203125 23.816406 4.203125 Z M 23.816406 4.484375 C 34.183594 4.484375 42.527344 12.828125 42.527344 23.199219 C 42.527344 33.566406 34.183594 41.910156 23.816406 41.910156 C 13.445312 41.910156 5.101562 33.566406 5.101562 23.199219 C 5.101562 12.828125 13.445312 4.484375 23.816406 4.484375 Z M 23.816406 4.484375 "/>
<path style=" stroke:none;fill-rule:nonzero;fill:url(#radial4);" d="M 36.21875 26.671875 C 37.3125 26.671875 38.203125 27.558594 38.203125 28.65625 C 38.203125 29.75 37.3125 30.640625 36.21875 30.640625 C 35.121094 30.640625 34.234375 29.75 34.234375 28.65625 C 34.234375 27.558594 35.121094 26.671875 36.21875 26.671875 Z M 36.21875 26.671875 "/>
<path style=" stroke:none;fill-rule:nonzero;fill:url(#radial5);" d="M 29.023438 17.242188 C 29.984375 17.242188 30.761719 18.019531 30.761719 18.980469 C 30.761719 19.9375 29.984375 20.71875 29.023438 20.71875 C 28.066406 20.71875 27.289062 19.9375 27.289062 18.980469 C 27.289062 18.019531 28.066406 17.242188 29.023438 17.242188 Z M 29.023438 17.242188 "/>
<path style=" stroke:none;fill-rule:nonzero;fill:url(#radial6);" d="M 31.753906 11.785156 C 32.847656 11.785156 33.738281 12.675781 33.738281 13.769531 C 33.738281 14.867188 32.847656 15.753906 31.753906 15.753906 C 30.65625 15.753906 29.769531 14.867188 29.769531 13.769531 C 29.769531 12.675781 30.65625 11.785156 31.753906 11.785156 Z M 31.753906 11.785156 "/>
<path style=" stroke:none;fill-rule:nonzero;fill:rgb(64.705884%,83.92157%,65.490198%);fill-opacity:1;" d="M 23.566406 6.328125 L 23.566406 12.78125 C 17.992188 12.910156 13.527344 17.375 13.398438 22.949219 L 6.945312 22.949219 L 6.945312 23.445312 L 13.398438 23.445312 C 13.527344 29.019531 17.992188 33.484375 23.566406 33.613281 L 23.566406 40.066406 L 24.0625 40.066406 L 24.0625 33.613281 C 29.636719 33.484375 34.101562 29.019531 34.230469 23.445312 L 40.683594 23.445312 L 40.683594 22.949219 L 34.230469 22.949219 C 34.101562 17.375 29.636719 12.910156 24.0625 12.78125 L 24.0625 6.328125 Z M 23.566406 13.277344 L 23.566406 22.949219 L 13.894531 22.949219 C 14.023438 17.648438 18.265625 13.40625 23.566406 13.277344 Z M 24.0625 13.277344 C 29.363281 13.40625 33.605469 17.648438 33.734375 22.949219 L 24.0625 22.949219 Z M 13.894531 23.445312 L 23.566406 23.445312 L 23.566406 33.117188 C 18.265625 32.988281 14.023438 28.746094 13.894531 23.445312 Z M 24.0625 23.445312 L 33.734375 23.445312 C 33.605469 28.746094 29.363281 32.988281 24.0625 33.117188 Z M 24.0625 23.445312 "/>
<path style=" stroke:none;fill-rule:nonzero;fill:rgb(64.705884%,83.92157%,65.490198%);fill-opacity:1;" d="M 8.929688 22.207031 L 8.929688 24.191406 L 9.425781 24.191406 L 9.425781 22.207031 Z M 11.90625 22.207031 L 11.90625 24.191406 L 12.402344 24.191406 L 12.402344 22.207031 Z M 14.882812 22.207031 L 14.882812 24.191406 L 15.378906 24.191406 L 15.378906 22.207031 Z M 17.859375 22.207031 L 17.859375 24.191406 L 18.355469 24.191406 L 18.355469 22.207031 Z M 20.839844 22.207031 L 20.839844 24.191406 L 21.335938 24.191406 L 21.335938 22.207031 Z M 20.839844 22.207031 "/>
<path style=" stroke:none;fill-rule:nonzero;fill:rgb(64.705884%,83.92157%,65.490198%);fill-opacity:1;" d="M 26.296875 22.207031 L 26.296875 24.191406 L 26.792969 24.191406 L 26.792969 22.207031 Z M 29.273438 22.207031 L 29.273438 24.191406 L 29.769531 24.191406 L 29.769531 22.207031 Z M 32.25 22.207031 L 32.25 24.191406 L 32.746094 24.191406 L 32.746094 22.207031 Z M 35.226562 22.207031 L 35.226562 24.191406 L 35.722656 24.191406 L 35.722656 22.207031 Z M 38.203125 22.207031 L 38.203125 24.191406 L 38.699219 24.191406 L 38.699219 22.207031 Z M 38.203125 22.207031 "/>
<path style=" stroke:none;fill-rule:nonzero;fill:rgb(64.705884%,83.92157%,65.490198%);fill-opacity:1;" d="M 22.824219 20.71875 L 24.808594 20.71875 L 24.808594 20.21875 L 22.824219 20.21875 Z M 22.824219 17.738281 L 24.808594 17.738281 L 24.808594 17.242188 L 22.824219 17.242188 Z M 22.824219 14.761719 L 24.808594 14.761719 L 24.808594 14.265625 L 22.824219 14.265625 Z M 22.824219 11.785156 L 24.808594 11.785156 L 24.808594 11.289062 L 22.824219 11.289062 Z M 22.824219 8.808594 L 24.808594 8.808594 L 24.808594 8.3125 L 22.824219 8.3125 Z M 22.824219 8.808594 "/>
<path style=" stroke:none;fill-rule:nonzero;fill:rgb(64.705884%,83.92157%,65.490198%);fill-opacity:1;" d="M 22.824219 38.082031 L 24.808594 38.082031 L 24.808594 37.585938 L 22.824219 37.585938 Z M 22.824219 35.105469 L 24.808594 35.105469 L 24.808594 34.609375 L 22.824219 34.609375 Z M 22.824219 32.128906 L 24.808594 32.128906 L 24.808594 31.632812 L 22.824219 31.632812 Z M 22.824219 29.152344 L 24.808594 29.152344 L 24.808594 28.65625 L 22.824219 28.65625 Z M 22.824219 26.175781 L 24.808594 26.175781 L 24.808594 25.679688 L 22.824219 25.679688 Z M 22.824219 26.175781 "/>
<path style=" stroke:none;fill-rule:nonzero;fill:url(#linear3);" d="M 23.765625 23.199219 L 23.765625 23.328125 L 23.816406 23.199219 Z M 23.816406 23.199219 L 32.191406 37.855469 C 37.273438 34.957031 40.683594 29.488281 40.683594 23.199219 Z M 23.816406 23.199219 "/>
<path style=" stroke:none;fill-rule:nonzero;fill:url(#linear4);" d="M 31.941406 37.660156 L 23.816406 23.589844 C 23.75 23.472656 23.789062 23.320312 23.90625 23.25 C 24.027344 23.183594 24.179688 23.222656 24.246094 23.34375 L 32.371094 37.414062 C 32.441406 37.53125 32.398438 37.683594 32.28125 37.753906 C 32.160156 37.820312 32.011719 37.78125 31.941406 37.660156 Z M 31.941406 37.660156 "/>
<path style="fill:none;stroke-width:3;stroke-linecap:round;stroke-linejoin:round;stroke:rgb(12.941177%,12.941177%,12.941177%);stroke-opacity:1;stroke-miterlimit:4;" d="M 254.017409 -147.506445 C 353.38292 -147.506445 433.916896 -66.930807 433.916896 32.434704 C 433.916896 131.800216 353.38292 212.334192 254.017409 212.334192 C 154.651898 212.334192 74.076259 131.800216 74.076259 32.434704 C 74.076259 -66.930807 154.651898 -147.506445 254.017409 -147.506445 Z M 254.017409 -147.506445 " transform="matrix(0.093759,0,0,0.093759,0,20.158175)"/>
<path style=" stroke:none;fill-rule:nonzero;fill:rgb(100%,100%,100%);fill-opacity:0.156863;" d="M 23.816406 8.3125 C 15.570312 8.3125 8.929688 14.953125 8.929688 23.199219 C 8.929688 24.992188 9.246094 26.710938 9.824219 28.300781 C 14.878906 23.882812 21.503906 21.214844 28.777344 21.214844 C 32.265625 21.214844 35.605469 21.828125 38.695312 22.957031 C 38.570312 14.824219 31.980469 8.3125 23.816406 8.3125 Z M 40.683594 23.199219 C 40.683594 23.257812 40.683594 23.316406 40.683594 23.375 C 40.683594 23.316406 40.683594 23.257812 40.683594 23.199219 Z M 40.679688 23.460938 C 40.679688 23.472656 40.679688 23.484375 40.679688 23.496094 C 40.679688 23.484375 40.679688 23.472656 40.679688 23.460938 Z M 6.96875 24.074219 C 6.972656 24.144531 6.976562 24.214844 6.980469 24.285156 C 6.976562 24.214844 6.972656 24.144531 6.96875 24.074219 Z M 7.011719 24.714844 C 7.019531 24.785156 7.027344 24.855469 7.03125 24.925781 C 7.027344 24.855469 7.019531 24.785156 7.011719 24.714844 Z M 7.152344 25.855469 C 7.160156 25.898438 7.164062 25.941406 7.171875 25.984375 C 7.164062 25.941406 7.160156 25.898438 7.152344 25.855469 Z M 7.152344 25.855469 "/>
</g>
</svg>
